X: 6287
T: Caroline's Fancy
R: polka
M: 2/4
K: Amajor
|:E|A>B cB|Aa fe|cA dB|c>A FE|
A>B cB|Aa fe|cB/A/ FA/d/|BG A:|
|:e|a>e ce|d>B FB|A>B cA|fd/c/ Be/g/|
a>e ce|d>B FB|Ac ed/c/|BG A:|

